!!!OTL: Gelamors
!!!ARE: Europa, Mitteleuropa, Deutschland
!!!SCT: A0312
!!!YEM: Copyright 1995, estate of Helmut Schaffrath.
**kern
*ICvox
*Ivox
*M6/2
*k[f#]
*G:
{0.cc
=1
1.cc
2cc
1ee
=2
0.dd
=3
2g
2f#
2g
2dd
4b
4g
2a
=4
0.g}
=5
{1a
2b
[1.cc
=6
1.cc]
1.b
=7
1cc
2b
2a
1g
=8
1c
2g
2a
4a
4g
4a
4fn
=9
0.e}
=10
{0.cc
=11
1.cc
2cc
1ee
=12
0.dd
=13
2g
2f#
2g
2dd
4b
4g
2a
=14
0.g}
=15
{1a
2b
[1.cc
=16
1.cc]
1.b
=17
1cc
2b
2a
1g
=18
1c
2g
2a
4a
4g
4a
4fn
=19
0.e}
=20
{1.g
1.b
=21
0.dd
=22
[1.g
2g]
1fn
=23
2g
2fn
2g
2dd
4b
4g
2a
=24
0.g}
=25
{1.g
1.b
=26
0.dd
=27
[1.g
2g]
1fn
=28
2g
2fn
2g
2dd
4b
4g
2a
=29
0.g}
=30
{1.a
2a
1e
=31
1.d
2d
1e
=32
1.g
2fn
1e
=33
1d
2a
2g
4a
4g
4a
4fn
=34
0.e}
=35
{0.cc
=36
1.g
2g
1cc
=37
2g
2e
2c
4B
2c
4e
2d
=38
0.c}
=39
{[1.cc
2cc]
1ee
=40
[1.dd
2dd]
1cc
=41
2dd
2cc
2ee
2dd
4b
4g
2a
=42
0.g}
=43
{1.dd
1.a
=44
2b
4a
2g
4fn
1.e
=45
0.a}
=46
{1.e
2e
1g
=47
1a
2dd
2ee
4cc
4a
2b
=48
0.a}
=49
{1ee
2dd
2cc
1b
=50
1.a
2a
1b
=51
2e
2d
2e
2a
4g
4e
2fn
=52
0.e}
=53
{2g
2fn
2a
2g
4e
4c
2d
=54
1.c
2c
1d
=55
[1.e
2e]
1fn}
=56
{1g
2cc
2dd
4b
4g
2a
=57
0.g}
==
!!!AGN: Romanze, Ballade, Lied
!! Locheimer Liederbuch Hs. S.44. Druck S. 155.
!!!ONB: ESAC (Essen Associative Code) Database: ALTDEU
!!!AMT: compound duple
!!!AIN: vox
!!!EED: Helmut Schaffrath
!!!EEV: 1.0
*-
